assets/images/Live/hotel.svg

<svg width="38" height="36" viewBox="0 0 38 36" fill="none" xmlns="http://www.w3.org/2000/svg">
<path fill-rule="evenodd" clip-rule="evenodd" d="M21.3145 4.38322L30.7096 11.4061H37.19V35.7845H0V11.4061H6.48036L15.8755 4.38322C15.6734 3.97691 15.5591 3.51958 15.5591 3.03589C15.5591 1.3619 16.921 0 18.595 0C20.269 0 21.6309 1.3619 21.6309 3.03589C21.6309 3.51958 21.5166 3.97691 21.3145 4.38322ZM20.5328 3.03589C20.5328 1.96741 19.6635 1.09813 18.595 1.09813C17.5265 1.09813 16.6572 1.96741 16.6572 3.03589C16.6572 4.10444 17.5265 4.97372 18.595 4.97372C19.6635 4.97372 20.5328 4.10444 20.5328 3.03589ZM1.09813 12.5042V34.6864H36.0919V12.5042H17.1079H16.0098V11.4061H17.1079H28.8757L20.6563 5.26217C20.1145 5.76416 19.3903 6.07185 18.5951 6.07185C17.7999 6.07185 17.0756 5.76416 16.5338 5.26217L8.31445 11.4061H11.6905H12.7154V12.5042H11.6905H1.09813ZM6.16468 14.1514V13.6023H31.0252V14.1514C31.0252 16.0368 32.5592 17.5707 34.4446 17.5707H34.9937V29.6199H34.4446C32.5592 29.6199 31.0252 31.1538 31.0252 33.0392V33.5883H26.7714V32.4902H29.9604C30.2101 30.4371 31.8425 28.8047 33.8956 28.5549V18.6357C31.8425 18.3859 30.2101 16.7535 29.9604 14.7005H7.22965C6.97986 16.7535 5.34745 18.3859 3.29439 18.6357V28.5549C5.34745 28.8047 6.97986 30.4371 7.22965 32.4902H23.477V33.5883H6.16468V33.0392C6.16468 31.1538 4.63074 29.6199 2.74532 29.6199H2.19626V17.5707H2.74532C4.63074 17.5707 6.16468 16.0368 6.16468 14.1514ZM18.629 2.22679H19.7271V3.32492H18.629V2.22679ZM11.8711 20.993V26.1976H10.7987V23.9671H8.70751V26.1976H7.63515V20.993H8.70751V23.1019H10.7987V20.993H11.8711ZM16.023 21.2343C15.6858 21.0258 15.3003 20.9215 14.8666 20.9215C14.4329 20.9215 14.0474 21.0258 13.7102 21.2343C13.373 21.4428 13.112 21.7419 12.9274 22.1315C12.7427 22.5211 12.6504 22.9722 12.6504 23.4845V23.7419C12.6527 24.2423 12.7469 24.685 12.9327 25.0699C13.1186 25.4548 13.3807 25.7509 13.7192 25.9582C14.0575 26.1655 14.4424 26.2692 14.8737 26.2692C15.3098 26.2692 15.6964 26.1643 16.0337 25.9546C16.3708 25.7449 16.6301 25.447 16.8112 25.0609C16.9923 24.6749 17.0829 24.2257 17.0829 23.7133V23.481C17.0829 22.971 16.9905 22.5212 16.8059 22.1315C16.6211 21.7418 16.3602 21.4427 16.023 21.2343ZM15.9962 23.7311C15.9938 24.2721 15.8962 24.6838 15.7031 24.9661C15.5101 25.2485 15.2336 25.3897 14.8738 25.3897C14.5067 25.3897 14.2256 25.2432 14.0302 24.95C13.8348 24.6569 13.7371 24.2447 13.7371 23.7132V23.4594C13.7394 22.9184 13.8383 22.5079 14.0338 22.2279C14.2292 21.948 14.5068 21.8079 14.8667 21.8079C15.2289 21.8079 15.5077 21.9498 15.7032 22.2333C15.8986 22.5169 15.9963 22.9316 15.9963 23.4773V23.7311H15.9962ZM19.8819 21.8616V26.1976H18.8095V21.8616H17.2366V20.993H21.4761V21.8616H19.8819ZM25.5692 21.8616V20.993H22.0874V26.1976H25.5763V25.3361H23.1599V23.942H25.2188V23.1019H23.1599V21.8616H25.5692ZM26.2054 26.1976V20.993H27.2778V25.3361H29.5548V26.1976H26.2054ZM7.63515 18.0155H26.6744V19.1136H7.63515V18.0155ZM29.5548 29.1751V28.077H7.63515V29.1751H29.5548Z" fill="#2F70B6"/>
</svg>

<svg xmlns="http://www.w3.org/2000/svg" width="38" height="36" fill="none" viewBox="0 0 38 36"><path fill="#2F70B6" fill-rule="evenodd" d="M21.314 4.383l9.396 7.023h6.48v24.378H0V11.407h6.48l9.396-7.023a3.017 3.017 0 0 1-.317-1.347A3.04 3.04 0 0 1 18.595 0a3.04 3.04 0 0 1 3.036 3.036c0 .484-.114.94-.317 1.347zm-.781-1.347a1.94 1.94 0 0 0-1.938-1.938 1.94 1.94 0 0 0-1.938 1.938 1.94 1.94 0 0 0 1.938 1.938 1.94 1.94 0 0 0 1.938-1.938zM1.098 12.504v22.182h34.994V12.504H16.01v-1.098H28.876l-8.22-6.144a3.024 3.024 0 0 1-4.123 0l-8.219 6.144h4.401v1.098H1.098zm5.067 1.647v-.549h24.86v.55a3.423 3.423 0 0 0 3.42 3.419h.549V29.62h-.55a3.423 3.423 0 0 0-3.419 3.42v.548h-4.254V32.49h3.19a4.526 4.526 0 0 1 3.935-3.935v-9.92A4.526 4.526 0 0 1 29.96 14.7H7.23a4.527 4.527 0 0 1-3.936 3.936v9.919A4.527 4.527 0 0 1 7.23 32.49h16.247v1.098H6.165v-.549a3.423 3.423 0 0 0-3.42-3.42h-.549V17.572h.55a3.423 3.423 0 0 0 3.419-3.42zM18.629 2.227h1.098v1.098H18.63V2.227zm-6.758 18.766v5.205H10.8v-2.23H8.708v2.23H7.635v-5.205h1.073v2.109h2.09v-2.109h1.073zm4.152.241a2.154 2.154 0 0 0-1.156-.313c-.434 0-.82.105-1.157.313a2.062 2.062 0 0 0-.783.897c-.184.39-.277.841-.277 1.354v.257c.003.5.097.943.283 1.328.186.385.448.68.786.888.338.208.723.311 1.155.311.436 0 .822-.105 1.16-.314.337-.21.596-.508.777-.894.181-.386.272-.835.272-1.348v-.232c0-.51-.092-.96-.277-1.35a2.062 2.062 0 0 0-.783-.897zm-.027 2.497c-.002.541-.1.953-.293 1.235-.193.282-.47.424-.83.424-.366 0-.647-.147-.843-.44-.195-.293-.293-.705-.293-1.237v-.254c.002-.54.101-.951.297-1.231.195-.28.473-.42.833-.42.362 0 .64.142.836.425.196.284.293.699.293 1.244v.254zm3.886-1.87v4.337h-1.073v-4.336h-1.572v-.869h4.24v.869h-1.595zm5.687 0v-.868h-3.482v5.205h3.49v-.862H23.16v-1.394h2.059v-.84h-2.06v-1.24h2.41zm.636 4.337v-5.205h1.073v4.343h2.277v.862h-3.35zm-18.57-8.183h19.04v1.099H7.634v-1.099zm21.92 11.16v-1.098H7.635v1.098h21.92z" clip-rule="evenodd"/></svg>
